X: 383
T: Bir İhtimal Daha Var
C: Osman Nihat Akın
O: Turkey
F: http://compmusic.upf.edu/node/140
N: nihavent--sarki--duyek--bir_ihtimal--osman_nihat_akin
N: makam= nihavent
N: form= sarki
N: usul= duyek = 8/4
M: 8/4
L: 1/16
K: C _B _e  
Q: 1/4=144
%%MIDI tuningsystem comma53
g2 g4 f2 e2 d2 f2 ed  | d6 de dc Bc d4  | \
w:  Bir_ ih ti mal  *  da ha   |  var  SAZ  | 
z4 A2 B2 c4 {e}d4  | 
w:  o  da  öl *  mek   | 
A2 BA G2 {A}G^F G8  | z2 g4 gf e2 {f}ed cB c2  | \
w:  mi  der *  *  *  *  *  sin    |  Söy le  *  ca *  *  *  nım   | 
f2 fe e2 ed d8  | 
w:  ne  der *  *  *  *  sin    | 
z2 g4 gf f2 fe e2 ed  | d2 de de dc dc BA G4  | 
w:  SAZ  |   | 
g2 g4 f2 e2 d2 f2 ed  | d6 de dc Bc d4  | \
w:  Bir_ ih ti mal  *  da ha   |  var  SAZ  | 
z4 A2 B2 c4 {e}d4  | 
w:  o  da  öl *  mek   | 
A2 BA G2 {A}G^F G8  | z2 g4 gf e2 {f}ed cB c2  | \
w:  mi  der *  *  *  *  *  sin    |  Söy le  *  ca *  *  *  nım   | 
f2 fe e2 ed d8  | 
w:  ne  der *  *  *  *  sin    | 
z2 g4 gf f2 fe e2 ed  | d2 de de dc dc Bc d4  | 
w:  SAZ  |   | 
z2 d4 _2/4e2 {g}f4 {a}g4  | g2 a2 f2 g2 fe ed d4  | \
w:  Vus la *  tın  *  baş  |  *  ka  *  *  â *  *  *  lem   | 
z2 f4 f2 fg e2 de c2  | 
w:  sen  bir  öm *  *  re   | 
c2 dc B2 BA B2 {c}Bc dc d2  | z2 A4 B2 c2 {d}cd d4  | \
w:  be del *  *  *  *  sin    |  sen  bir  öm *  *  *  re   | 
A2 BA G2 {A}G^F G8  | 
w:  be del *  *  *  *  *  sin    | 
z2 g4 gf f2 fe e2 ed  | d2 de de dc dc Bc d4  | 
w:  SAZ  |   | 
z2 d4 _2/4e2 {g}f4 {a}g4  | g2 a2 f2 g2 fe ed d4  | \
w:  Vus la *  tın  *  baş  |  *  ka  *  *  â *  *  *  lem   | 
z2 f4 f2 fg e2 de c2  | 
w:  sen  bir  öm *  *  re   | 
c2 dc B2 BA B2 {c}Bc dc d2  | z2 A4 B2 c2 {d}cd d4  | \
w:  be del *  *  *  *  sin    |  sen  bir  öm *  *  *  re   | 
A2 BA G2 {A}G^F G8  | 
w:  be del *  *  *  *  *  sin    | 
z2 a4 ag g2 fg a2 {b}ag  | ag g6 fe dc g4  | \
w:   |   | 
a2 a2 {b}a2 c'2 c'a a2 ag gf  | 
w:  Sü kût_ *  *  *  et *  *  me   | 
g2 gf _2/4e2 fg f_e ed d4  | c2 d6 de c2 {a}g4  | \
w:  *  naz *  *  *  *  lı  *  *  *  yâr   |  be ni  mec *  *  *  nun_  | 
g2 gf e2 fg fe ed {f}e4  | 
w:  e der *  *  *  *  sin    | 
c2 d6 cB AG f2 ed  | g2 gf e2 ed d8  | \
w:  be ni  mec *  *  *  nun_  |  e der *  *  *  *  sin    | 
z2 a4 ag g2 fg a2 {b}ag  | 
w:  SAZ  | 
ag g6 fe dc g4  | a2 a2 {b}a2 c'2 c'a a2 ag gf  | \
w:   |  Sü kût_ *  *  *  et *  *  me   | 
g2 gf _2/4e2 fg f_e ed d4  | 
w:  *  naz *  *  *  *  lı  *  *  *  yâr   | 
c2 d6 de c2 {a}g4  | g2 gf e2 fg fe ed {f}e4  | \
w:  be ni  mec *  *  *  nun_  |  e der *  *  *  *  sin    | 
c2 d6 cB AG f2 ed  | 
w:  be ni  mec *  *  *  nun_  | 
g2 gf e2 ed d8  | z2 g4 gf f2 fe e2 ed  | \
w:  e der *  *  *  *  sin    |   | 
d2 de de dc dc Bc d4  | 
w:   | 
z2 d4 _2/4e2 {g}f4 {a}g4  | g2 a2 f2 g2 fe ed d4  | \
w:  Vus la *  tın  *  baş  |  *  ka  *  *  â *  *  *  lem   | 
z2 f4 f2 fg e2 de c2  | 
w:  sen  bir  öm *  *  re   | 
c2 dc B2 BA B2 {c}Bc dc d2  | z2 A4 B2 c2 {d}cd d4  | \
w:  be del *  *  *  *  sin    |  sen  bir  öm *  *  *  re   | 
A2 BA G2 {A}G^F G8  | 
w:  be del *  *  *  *  *  sin    | 
|


